modules/zondicons/icons/light-bulb.svg

<?xml version="1.0" encoding="UTF-8" standalone="no"?>
<svg width="20px" height="20px" viewBox="0 0 20 20" version="1.1" xmlns="http://www.w3.org/2000/svg" xmlns:xlink="http://www.w3.org/1999/xlink">
    <!-- Generator: Sketch 3.7.2 (28276) - http://www.bohemiancoding.com/sketch -->
    <title>light-bulb</title>
    <desc>Created with Sketch.</desc>
    <defs></defs>
    <g id="Page-1" stroke="none" stroke-width="1" fill="none" fill-rule="evenodd">
        <g id="light-bulb" fill="#000000">
            <path d="M11,11.8999819 C13.2822403,11.4367116 15,9.41895791 15,7 C15,4.23857625 12.7614237,2 10,2 C7.23857625,2 5,4.23857625 5,7 C5,9.41895791 6.71775968,11.4367116 9,11.8999819 L9,14 L11,14 L11,11.8999819 Z M13,13.3263688 C15.3649473,12.2029049 17,9.79239596 17,7 C17,3.13400675 13.8659932,0 10,0 C6.13400675,0 3,3.13400675 3,7 C3,9.79239596 4.63505267,12.2029049 7,13.3263688 L7,16 L13,16 L13,13.3263688 Z M7,17 L13,17 L13,18.5 C13,19.3284271 12.3349702,20 11.501424,20 L8.49857602,20 C7.67093534,20 7,19.3342028 7,18.5 L7,17 Z" id="Combined-Shape"></path>
        </g>
    </g>
</svg>

<svg width="20" height="20" viewBox="0 0 20 20" xmlns="http://www.w3.org/2000/svg"><path d="M11 11.9A5.002 5.002 0 0 0 10 2a5 5 0 0 0-1 9.9V14h2v-2.1zm2 1.426a7 7 0 1 0-6 0V16h6v-2.674zM7 17h6v1.5c0 .828-.665 1.5-1.499 1.5H8.5A1.496 1.496 0 0 1 7 18.5V17z" fill="#000" fill-rule="evenodd"/></svg>
